src/icons/meson.svg

<svg viewBox="0 0 18 18" xmlns="http://www.w3.org/2000/svg">
  <path
    d="M9.06006 1.53402C4.43306 4.17402 1.56006 9.12202 1.53406 14.496C6.37406 17.164 12.0591 17.073 16.4641 14.524C16.4641 14.511 16.4641 14.498 16.4661 14.485C16.4601 9.14002 13.6371 4.20302 9.06006 1.53302V1.53402ZM11.5501 7.25602C12.2371 7.72602 12.1351 8.86102 12.0241 9.63802C11.8841 10.494 11.0721 11.9 10.0181 12.818C10.1541 13.016 10.2341 13.26 10.2331 13.519C9.57906 13.853 8.93106 13.477 8.14706 12.798C7.36306 12.119 6.51706 10.759 6.23706 9.36102C5.98385 9.38853 5.72883 9.32892 5.51406 9.19202C5.57106 8.40902 6.39406 7.94302 7.12406 7.66802C7.85206 7.39302 9.73106 7.30002 11.0561 7.77602C11.1601 7.55702 11.3301 7.37302 11.5501 7.25602Z"
    fill="#3F51B5"
  />
</svg>

<svg viewBox="0 0 18 18" xmlns="http://www.w3.org/2000/svg">
  <path
    d="M9.06 1.534c-4.627 2.64-7.5 7.588-7.526 12.962 4.84 2.668 10.525 2.577 14.93.028 0-.013 0-.026.002-.039C16.46 9.14 13.637 4.203 9.06 1.533zm2.49 5.722c.687.47.585 1.605.474 2.382-.14.856-.952 2.262-2.006 3.18.136.198.216.442.215.701-.654.334-1.302-.042-2.086-.721-.784-.679-1.63-2.039-1.91-3.437a1.12 1.12 0 0 1-.723-.169c.057-.783.88-1.249 1.61-1.524.728-.275 2.607-.368 3.932.108.104-.219.275-.403.495-.52z"
    style="fill: #3f51b5; stroke-width: 0.93326"
  />
</svg>
